material/.icons/material/headphones-box.svg

<svg xmlns="http://www.w3.org/2000/svg" viewBox="0 0 24 24"><path d="M7.2 18c-.66 0-1.2-.54-1.2-1.2V12a6 6 0 016-6 6 6 0 016 6v4.8a1.2 1.2 0 01-1.2 1.2H14v-4h2v-2a4 4 0 00-4-4 4 4 0 00-4 4v2h2v4m9-15H5c-1.11 0-2 .89-2 2v14a2 2 0 002 2h14a2 2 0 002-2V5a2 2 0 00-2-2z"/></svg>

<?xml version="1.0" encoding="UTF-8"?><!DOCTYPE svg PUBLIC "-//W3C//DTD SVG 1.1//EN" "http://www.w3.org/Graphics/SVG/1.1/DTD/svg11.dtd"><svg xmlns="http://www.w3.org/2000/svg" xmlns:xlink="http://www.w3.org/1999/xlink" version="1.1" id="mdi-headphones-box" width="24" height="24" viewBox="0 0 24 24"><path d="M7.2,18C6.54,18 6,17.46 6,16.8V13.2L6,12A6,6 0 0,1 12,6A6,6 0 0,1 18,12V13.2L18,16.8A1.2,1.2 0 0,1 16.8,18H14V14H16V12A4,4 0 0,0 12,8A4,4 0 0,0 8,12V14H10V18M19,3H5C3.89,3 3,3.89 3,5V19A2,2 0 0,0 5,21H19A2,2 0 0,0 21,19V5C21,3.89 20.1,3 19,3Z" /></svg>
